svgs/charts/chart-breakout-square.svg

<svg width="24" height="24" viewBox="0 0 24 24" fill="none" xmlns="http://www.w3.org/2000/svg">
<path d="M11 3H7.8C6.11984 3 5.27976 3 4.63803 3.32698C4.07354 3.6146 3.6146 4.07354 3.32698 4.63803C3 5.27976 3 6.11984 3 7.8V16.2C3 17.8802 3 18.7202 3.32698 19.362C3.6146 19.9265 4.07354 20.3854 4.63803 20.673C5.27976 21 6.11984 21 7.8 21H16.2C17.8802 21 18.7202 21 19.362 20.673C19.9265 20.3854 20.3854 19.9265 20.673 19.362C21 18.7202 21 17.8802 21 16.2V13M12 8H16V12M15.5 3.5V2M19.4393 4.56066L20.5 3.5M20.5103 8.5H22.0103M3 13.3471C3.65194 13.4478 4.31987 13.5 5 13.5C9.38636 13.5 13.2653 11.3276 15.6197 8" stroke="#1C1D20" stroke-width="1.5" stroke-linecap="round" stroke-linejoin="round"/>
</svg>

<svg fill="none" xmlns="http://www.w3.org/2000/svg" viewBox="0 0 24 24"><path d="M11 3H7.8c-1.68 0-2.52 0-3.162.327a3 3 0 0 0-1.311 1.311C3 5.28 3 6.12 3 7.8v8.4c0 1.68 0 2.52.327 3.162a3 3 0 0 0 1.311 1.311C5.28 21 6.12 21 7.8 21h8.4c1.68 0 2.52 0 3.162-.327a3 3 0 0 0 1.311-1.311C21 18.72 21 17.88 21 16.2V13m-9-5h4v4m-.5-8.5V2m3.94 2.56L20.5 3.5m.01 5h1.5M3 13.347c.652.1 1.32.153 2 .153 4.386 0 8.265-2.172 10.62-5.5" stroke="#1C1D20" stroke-width="1.5" stroke-linecap="round" stroke-linejoin="round"/></svg>
